X:1
T:Living in Sunlight
T:Living in Sunlight
T:James F. Boozer
T:Thomas J. Laney & James F. Boozer, 1912, alt.
T:Public Domain Courtesy of the Cyber Hymnal™
T:Public Domain Courtesy of the Cyber Hymnal™
C:James F. Boozer
Z:Public Domain
Z:Courtesy of the Cyber Hymnal™
%%score ( 1 2 ) ( 3 4 )
L:1/8
Q:1/4=102
M:9/8
K:G
V:1 treble 
V:2 treble 
V:3 bass 
V:4 bass 
V:1
 [DB][CA][DB] | [DG]3 [DG]3 [GB][FA]G | [FA]3 [Fd]3 [Gd][Gd][Ge] | [Gd]3 [GB]3 G[FA][GB] | %4
w: 1.~Liv- ing in|sun- light, beau- ti- ful|sun- light, Shin- ing from|Hea- ven thro’ the dark|
w: 2.~Liv- ing in|sun- light, watch- ing and|wait- ing, Press- ing my|way to man- sions a-|
w: 3.~Liv- ing in|sun- light, heav- en- ly|sun- light, Shin- ing from|glo- ry down in my|
w: 4.~Liv- ing in|sun- light, home- land is|near- ing, All the dark|sha- dows soon will be|
 [FA]6 [GB][FA]G | [Gd]3 [Gd]3 [Gc][Gd][Ge] | [Gd]3 [GB]3 [DG][GB][Ge] | %7
w: vale; I am re-|joic- ing, shout- ing His|prais- es, On the old|
w: bove; Je- sus the|light, in Him is no|dark- ness, Ev- er I’ll|
w: soul; Lead- ing me|up to beau- ti- ful|man- sions, Whe- re God’s|
w: o’er; Cheer up, O|pil- grim, bells are now|ring- ing, See the bright|
 [Gd]3 [GB]3 [FA][GB][DFA] | [DG]6 ||"^Refrain" [Gd][Gd][Gd] | [Ge]3 [Gc]3 [Gc][Gd][Ge] | %11
w: ship that soon will set|sail.|||
w: trust His won- der- ful|love.|||
w: child- ren nev- er grow|old.|||
w: an- gels throng- ing the|shore.|||
 [Gd]3 [GB]3 [DB][DA][DG] | [Gd]3 [Gd]3 [Ge][Gd][GB] | [FA]6 [GB][FA]G | [Gd]3 [Gd]3 [Gc][Gd][Ge] | %15
w: ||||
w: ||||
w: ||||
w: ||||
 [Gd]3 [GB]3 [DG][GB][Ge] | [Gd]3 [GB]3 [FA][GB][DFA] | [DG]6 |] %18
w: |||
w: |||
w: |||
w: |||
V:2
 x3 | x8 G | x9 | x6 G x2 | x8 G | x9 | x9 | x9 | x6 || x3 | x9 | x9 | x9 | x8 G | x9 | x9 | x9 | %17
 x6 |] %18
V:3
 G,G,G, | [G,B,]3 [G,B,]3 [G,D][D,C][E,B,] | [D,D]3 [D,A,]3 [G,B,][G,B,][G,C] | %3
w: Glo- ry to|||
 [G,B,]3 [G,D]3 [B,D][A,D][G,D] | [D,D]6 [D,D][D,C][D,B,] | [G,B,]3 [G,B,]3 [G,A,][G,B,][G,C] | %6
w: |||
 [G,B,]3 [G,D]3 [G,B,][G,D][G,C] | [G,B,]3 [G,D]3 [D,C][D,D][D,C] | [G,,G,B,]6 || %9
w: |||
 [G,B,][G,B,][G,B,] | [C,C]3 [C,E]3 [C,E][C,B,][C,C] | [G,B,]3 [G,D]3 [G,D][G,C][G,B,] | %12
w: God, I’m liv-|ing in sun- light, Beam-|ing with love, O glo-|
 [G,B,]3 [B,D]3 [G,C][G,B,][G,D] | [D,D]6 [D,D][D,C][D,B,] | [G,B,]3 [G,B,]3 [G,A,][G,B,][G,C] | %15
w: ry di- vine; I am|re- joic- ing all|of my jour- ney, Liv-|
 [G,B,]3 [G,D]3 [G,B,][G,D][G,C] | [G,B,]3 [G,D]3 [D,C][D,D][D,C] | [G,,G,B,]6 |] %18
w: ing in sun- light, Je-|sus is mine. * *||
V:4
 G,G,G, | x9 | x9 | x9 | x9 | x9 | x9 | x9 | x6 || x3 | x9 | x9 | x9 | x9 | x9 | x9 | x9 | x6 |] %18

